swiss/communes/5410.svg

<svg width="540" height="670" viewBox="0 0 142.88 177.27" xml:space="preserve" xmlns="http://www.w3.org/2000/svg"><path d="M140.04 58.11c0 63.566-23.411 98.886-68.595 116.15C26.496 156.93 2.849 121.674 2.849 58.11V3.01h137.19z" fill="#f00000"/><path d="m53.575 36.703-7.924 102.03 51.315-.923L88.77 36.05z" fill="#fff"/><g fill="none"><path d="M140.04 58.063c0 63.566-23.411 98.886-68.595 116.15-44.949-17.33-68.596-52.586-68.596-116.15v-55.1h137.19z" stroke="#00ef00" stroke-width="2.646"/><path d="M52.414 55.711h37.472m-39.589 22.86h41.705m-41.176-7.62h40.463M52.943 48.09h36.413M51.885 63.331h38.703m-40.82 22.861h42.763m-43.292 7.62h43.822M48.71 101.43h44.88m-45.837 7.62h46.798m-47.429 7.62h48.055" stroke="#000" stroke-width="1.058"/></g><path d="m71.213 119.28-14.54 14.551 14.426 13.759 14.426-13.759zm-20.347 5.01h15.546zm25.021 0h14.527z" fill="#fcdb00" stroke="#000" stroke-width="1.058"/><path d="M85.605 40.844v7.207m0 8.14v7.207m0 7.61v7.207m1.058 8.139v7.207m.529 8.139v7.207m1.059 8.143v7.207M71.846 86.354v7.207m-14.817-7.207v7.207m0-22.553v7.207m14.288-22.024v7.207m-14.288-7.207v7.207m7.408.201v7.207m14.288-7.207v7.207m0-22.553v7.207m-14.817-7.207v7.207m7.938-14.616v7.207m-14.288-7.207v7.207m33.338 45.712v7.207m-12.171-7.207v7.207m-14.817-7.207v7.207m-12.7-7.207v7.207m20.638.73v7.207M56.499 101.7v7.207m-6.35.203v7.207m13.759-7.207v7.207m14.288-7.207v7.207m13.759-7.207v7.207m-34.926.733v7.207m6.879-45.311v7.207m14.288-7.207v7.207M89.168 40.315l6.35 79.706M53.712 40.315l-6.35 79.706" fill="none" stroke="#000" stroke-width="1.058"/><path d="m69.909 66.057.424 10.274a2.625 2.625 0 0 0-1.519 2.38 2.625 2.625 0 0 0 2.626 2.625 2.625 2.625 0 0 0 2.625-2.626 2.625 2.625 0 0 0-1.32-2.277l.43-10.375h-3.266z"/><g stroke="#000" stroke-width="1.058"><path d="M71.174 117.05v2.203" fill="none"/><path d="m95.507 120.09-28.325 23.111 5.066 19.737 19.795 1.194c11.16-6.914 20.412-15.537 27.717-26.125z" fill="#fcdb00"/><path d="M47.292 120.23s-14.931 11.087-23.935 17.955c11.422 16.423 27.523 28.105 48.084 36.033 9.466-3.617 17.972-8.03 25.511-13.325z" fill="#fcdb00"/></g><path d="M140.04 58.063c0 63.566-23.411 98.886-68.595 116.15-44.949-17.33-68.596-52.586-68.596-116.15v-55.1h137.19z" fill="none" stroke="#000500" stroke-width="2.646"/><path d="m28.576 33.992 3.234 9.163h9.702l-7.546 5.93 2.695 9.162-8.085-5.39-8.085 5.39 2.695-9.163-7.546-5.929h9.702zm85.724 0 3.234 9.163h9.702l-7.546 5.93 2.695 9.162-8.085-5.39-8.086 5.39 2.696-9.163-7.547-5.929h9.703zM28.576 83.206l3.234 9.163h9.702l-7.546 5.93 2.695 9.162-8.085-5.39-8.085 5.39 2.695-9.163-7.546-5.929h9.702zm85.724 0 3.234 9.163h9.702l-7.546 5.93 2.695 9.162-8.085-5.39-8.086 5.39 2.696-9.163-7.547-5.929h9.703z" fill="#fff" stroke="#000" stroke-width="1.058"/><path d="M48.93 29.984v5.35c.027 2.594 2.147 5.208 5.296 5.348h34.427c3.149-.14 5.269-2.754 5.296-5.349v-5.349z" fill="#fff" stroke="#000" stroke-linecap="square" stroke-miterlimit="10" stroke-width="1.058"/><path d="M46.568 21.182v11.624h49.743V21.182h-6.9v5.83H82.03v-5.83h-6.9v5.83h-7.382v-5.83h-6.9v5.83h-7.38v-5.83z" fill="#fff" stroke="#000" stroke-linecap="square" stroke-miterlimit="10" stroke-width="1.058"/></svg>

<?xml version="1.0" encoding="UTF-8"?>
<svg width="540" height="670" viewBox="0 0 142.88 177.27" xml:space="preserve" xmlns="http://www.w3.org/2000/svg"><path d="M140.04 58.11c0 63.566-23.411 98.886-68.595 116.15C26.496 156.93 2.849 121.674 2.849 58.11V3.01h137.19z" fill="#f00000"/><path d="m53.575 36.703-7.924 102.03 51.315-.923L88.77 36.05z" fill="#fff"/><g fill="none"><path d="M140.04 58.063c0 63.566-23.411 98.886-68.595 116.15-44.949-17.33-68.596-52.586-68.596-116.15v-55.1h137.19z" stroke="#00ef00" stroke-width="2.646"/><g stroke="#000" stroke-width="1.058"><path d="M52.414 55.711h37.472M50.297 78.571h41.705M50.826 70.951h40.463M52.943 48.09h36.413M51.885 63.331h38.703M49.768 86.192h42.763M49.239 93.812h43.822M48.71 101.43h44.88M47.753 109.05h46.798M47.122 116.67h48.055"/></g></g><path d="m71.213 119.28-14.54 14.551 14.426 13.759 14.426-13.759zm-20.347 5.01h15.546zm25.021 0h14.527z" fill="#fcdb00" stroke="#000" stroke-width="1.058"/><g fill="none" stroke="#000" stroke-width="1.058"><path d="M85.605 40.844v7.207M85.605 56.191v7.207M85.605 71.008v7.207M86.663 86.354v7.207M87.192 101.7v7.207M88.251 117.05v7.207M71.846 86.354v7.207M57.029 86.354v7.207M57.029 71.008v7.207M71.317 56.191v7.207M57.029 56.191v7.207M64.437 63.599v7.207M78.725 63.599v7.207M78.725 48.253v7.207M63.908 48.253v7.207M71.846 40.844v7.207M57.558 40.844v7.207M90.896 93.763v7.207M78.725 93.763v7.207M63.908 93.763v7.207M51.208 93.763v7.207M71.846 101.7v7.207M56.499 101.7v7.207M50.149 109.11v7.207M63.908 109.11v7.207M78.196 109.11v7.207M91.955 109.11v7.207M57.029 117.05v7.207M63.908 78.946v7.207M78.196 78.946v7.207"/></g><g fill="none" stroke="#000" stroke-width="1.058"><path d="m89.168 40.315 6.35 79.706M53.712 40.315l-6.35 79.706"/></g><path d="m69.909 66.057.424 10.274a2.625 2.625 0 0 0-1.519 2.38 2.625 2.625 0 0 0 2.626 2.625 2.625 2.625 0 0 0 2.625-2.626 2.625 2.625 0 0 0-1.32-2.277l.43-10.375h-3.266z"/><g stroke="#000" stroke-width="1.058"><path d="M71.174 117.05v2.203" fill="none"/><path d="m95.507 120.09-28.325 23.111 5.066 19.737 19.795 1.194c11.16-6.914 20.412-15.537 27.717-26.125z" fill="#fcdb00"/><path d="M47.292 120.23s-14.931 11.087-23.935 17.955c11.422 16.423 27.523 28.105 48.084 36.033 9.466-3.617 17.972-8.03 25.511-13.325z" fill="#fcdb00"/></g><path d="M140.04 58.063c0 63.566-23.411 98.886-68.595 116.15-44.949-17.33-68.596-52.586-68.596-116.15v-55.1h137.19z" fill="none" stroke="#000500" stroke-width="2.646"/><g fill="#fff" stroke="#000" stroke-width="1.058"><path d="m28.576 33.992 3.234 9.163h9.702l-7.546 5.93 2.695 9.162-8.085-5.39-8.085 5.39 2.695-9.163-7.546-5.929h9.702zM114.3 33.992l3.234 9.163h9.702l-7.546 5.93 2.695 9.162-8.085-5.39-8.086 5.39 2.696-9.163-7.547-5.929h9.703z"/></g><g fill="#fff" stroke="#000" stroke-width="1.058"><path d="m28.576 83.206 3.234 9.163h9.702l-7.546 5.93 2.695 9.162-8.085-5.39-8.085 5.39 2.695-9.163-7.546-5.929h9.702zM114.3 83.206l3.234 9.163h9.702l-7.546 5.93 2.695 9.162-8.085-5.39-8.086 5.39 2.696-9.163-7.547-5.929h9.703z"/></g><path d="M48.93 29.984v5.35c.027 2.594 2.147 5.208 5.296 5.348h34.427c3.149-.14 5.269-2.754 5.296-5.349v-5.349z" fill="#fff" stroke="#000" stroke-linecap="square" stroke-miterlimit="10" stroke-width="1.058"/><path d="M46.568 21.182v11.624h49.743V21.182h-6.9v5.83H82.03v-5.83h-6.9v5.83h-7.382v-5.83h-6.9v5.83h-7.38v-5.83z" fill="#fff" stroke="#000" stroke-linecap="square" stroke-miterlimit="10" stroke-width="1.058"/></svg>
